X:1
T: The K'nocker Jig
C:Muriel Johnstone
R:Jig
%Q:180
K:G
M:6/8
L:1/16
b2|g4b2 d4g2|f2e2f2 g4d2|e2d2e2 d2B2A2|G4G2 G2A2B2|c2G2e2 d4D2|E2G2c2 e2f2g2|d2e2d2 d2B2A2|G4G2 G4G2|
c4e2 G4c2|d4g2 B2A2G2|A4a2 a2b2g2|f4e2 d2e2f2|g2a2g2 f6|e2f2e2 d4D2|E2G2e2 d2B2A2|G4G2 G4b2|
g4b2 d4g2|f2e2f2 g4d2|e2d2e2 d2B2A2|G4G2 G2A2B2|c2G2e2 d4D2|E2G2c2 e2f2g2|d2e2d2 d2B2A2|G4G2 G4G2|
c4e2 G4c2|d4g2 B2A2G2|A4a2 a2b2g2|f4e2 d2e2f2|g2a2g2 f6|e2f2e2 d4D2|E2G2e2 d2B2A2|G4G2 G4g2|
g4c'2 e4g2|d2e2f2 g6|e2f2g2 b2a2g2|a4a2 a2b2a2|g2a2g2 f6|e2f2e2 d6|E2G2e2 d2B2A2|G4G2 G4||
